docs/img/Group4.svg

<svg width="128" height="30" viewBox="0 0 128 30" fill="none" xmlns="http://www.w3.org/2000/svg">
<path fill-rule="evenodd" clip-rule="evenodd" d="M75.7124 8.5159C75.1024 8.79194 74.7214 9.41109 74.75 10.08L74.77 10.09C74.7752 10.5126 74.9495 10.9155 75.2539 11.2086C75.5584 11.5018 75.9675 11.6608 76.39 11.65C77.0596 11.6494 77.6615 11.2418 77.9107 10.6204C78.1599 9.99893 78.0063 9.28839 77.5226 8.82537C77.039 8.36236 76.3224 8.23985 75.7124 8.5159ZM39.72 9.26003H36.51V22.26H39.72V9.26003ZM46 12.22C43 12.22 41 14.15 41 17.37C41 20.66 42.93 22.54 46 22.54C49.07 22.54 51 20.59 51 17.37C51 14.15 49 12.22 46 12.22ZM47.82 17.37C47.82 15.6 47.13 14.56 46.03 14.56C44.93 14.56 44.25 15.56 44.25 17.37C44.25 19.18 44.93 20.17 46.03 20.17C47.13 20.17 47.84 19.18 47.84 17.38L47.82 17.37ZM55.38 22.93H52.28L52.3 22.94C52.48 24.73 54.26 26 57.04 26.01C60.1 26.01 62.18 24.54 62.18 22.19V12.45H59V14.0628C58.4571 12.9758 57.3169 12.3044 56.09 12.37C53.58 12.37 52.09 14.29 52.09 17.37C52.09 20.45 53.65 22.24 56 22.24C57.2579 22.3322 58.4432 21.6458 58.99 20.511V22.29C58.99 23.27 58.35 23.93 57.12 23.93C56.3814 24.0247 55.67 23.6159 55.38 22.93ZM59 17.37C59 15.8 58.28 14.81 57.14 14.81C56 14.81 55.3 15.81 55.3 17.37C55.3 18.93 55.99 19.85 57.14 19.85C58.29 19.85 59 19 59 17.37ZM68.45 12.22C65.45 12.22 63.45 14.15 63.45 17.37H63.47C63.47 20.66 65.39 22.54 68.45 22.54C71.51 22.54 73.45 20.59 73.45 17.37C73.45 14.15 71.45 12.22 68.45 12.22ZM70.27 17.37C70.27 15.6 69.57 14.56 68.48 14.56C67.39 14.56 66.7 15.56 66.7 17.37C66.7 19.18 67.38 20.17 68.48 20.17C69.58 20.17 70.29 19.18 70.29 17.38L70.27 17.37ZM74.75 12.44H78V22.3H74.8L74.75 12.44ZM85.8 22.44C88.25 22.44 89.69 20.58 89.69 17.37L89.75 17.38C89.75 14.16 88.3 12.31 85.78 12.33C84.4796 12.2682 83.2799 13.028 82.78 14.23H82.72V12.47H79.53V25.47H82.74V20.61H82.8C83.3175 21.7886 84.5153 22.5193 85.8 22.44ZM86.42 17.37C86.42 15.81 85.69 14.8 84.56 14.8C83.43 14.8 82.72 15.8 82.71 17.37C82.7 18.94 83.43 19.93 84.56 19.93C85.69 19.93 86.48 19 86.48 17.38L86.42 17.37ZM99.55 15.52C99.53 13.48 97.86 12.21 95.17 12.21L95.23 12.22C92.52 12.22 90.84 13.47 90.78 15.43C90.78 16.94 91.79 17.95 93.72 18.36L95.58 18.75C96.35 18.91 96.65 19 96.65 19.53C96.65 20.06 96.21 20.36 95.27 20.36C94.33 20.36 93.75 19.93 93.66 19.2H90.55C90.68 21.21 92.47 22.53 95.22 22.53C97.97 22.53 99.82 21.17 99.82 19.17C99.82 17.68 99.02 16.88 97.02 16.46L94.96 16.04C94.22 15.89 93.85 15.73 93.85 15.22C93.85 14.71 94.27 14.37 95.15 14.37C96.03 14.37 96.62 14.81 96.62 15.52H99.55ZM110.57 22.29H107.46V20.44H107.4C107.041 21.7111 105.849 22.5631 104.53 22.49C103.552 22.5219 102.608 22.1348 101.934 21.4262C101.259 20.7176 100.92 19.7548 101 18.78V12.45H104.21V18.09C104.21 19.25 104.82 19.88 105.82 19.88C106.295 19.8765 106.745 19.6674 107.053 19.3068C107.362 18.9463 107.499 18.4696 107.43 18V12.45H110.63L110.57 22.29ZM115.24 12.44H112.12L112.14 22.3H115.35V16.48C115.298 16.0707 115.425 15.6589 115.699 15.3504C115.973 15.0419 116.367 14.8668 116.78 14.87C117.66 14.87 118.15 15.4 118.15 16.4V22.3H121.21V16.46C121.155 16.0553 121.279 15.6466 121.55 15.341C121.821 15.0353 122.212 14.8633 122.62 14.87C123.53 14.87 124 15.43 124 16.43V22.3H127.23V15.61C127.296 14.724 126.981 13.8518 126.365 13.2122C125.748 12.5726 124.888 12.2262 124 12.26C122.642 12.1965 121.411 13.0541 121 14.35H120.86C120.623 13.0509 119.436 12.1456 118.12 12.26C116.819 12.2335 115.665 13.0883 115.31 14.34H115.24V12.44Z" fill="#696871"/>
<path fill-rule="evenodd" clip-rule="evenodd" d="M30.16 10.11C30.1602 6.03639 27.6602 2.38026 23.8641 0.902517C20.068 -0.575227 15.754 0.42839 13 3.42999H0.52002V29.77H26.87V17.46C28.9617 15.5891 30.1581 12.9163 30.16 10.11ZM25.09 10.11C25.0941 12.0604 23.9223 13.821 22.1215 14.5702C20.3207 15.3194 18.2459 14.9095 16.8653 13.5318C15.4847 12.1541 15.0705 10.0801 15.816 8.27778C16.5614 6.47544 18.3196 5.3 20.27 5.29999C22.9281 5.29999 25.0845 7.45189 25.09 10.11ZM5.59002 24.7H21.8V19.87C21.2943 19.9538 20.7827 19.9973 20.27 20C14.8102 19.9945 10.3855 15.5698 10.38 10.11C10.3844 9.57005 10.4346 9.03145 10.53 8.49999H5.59002V24.7Z" fill="#696871"/>
</svg>

<svg width="128" height="30" fill="none" xmlns="http://www.w3.org/2000/svg"><path fill-rule="evenodd" clip-rule="evenodd" d="M75.712 8.516a1.64 1.64 0 00-.962 1.564l.02.01a1.58 1.58 0 001.62 1.56 1.64 1.64 0 10-.678-3.134zM39.72 9.26h-3.21v13h3.21v-13zM46 12.22c-3 0-5 1.93-5 5.15 0 3.29 1.93 5.17 5 5.17 3.07 0 5-1.95 5-5.17 0-3.22-2-5.15-5-5.15zm1.82 5.15c0-1.77-.69-2.81-1.79-2.81s-1.78 1-1.78 2.81.68 2.8 1.78 2.8 1.81-.99 1.81-2.79l-.02-.01zm7.56 5.56h-3.1l.02.01c.18 1.79 1.96 3.06 4.74 3.07 3.06 0 5.14-1.47 5.14-3.82v-9.74H59v1.613a3.07 3.07 0 00-2.91-1.693c-2.51 0-4 1.92-4 5s1.56 4.87 3.91 4.87a3.07 3.07 0 002.99-1.729v1.779c0 .98-.64 1.64-1.87 1.64a1.66 1.66 0 01-1.74-1zM59 17.37c0-1.57-.72-2.56-1.86-2.56-1.14 0-1.84 1-1.84 2.56s.69 2.48 1.84 2.48c1.15 0 1.86-.85 1.86-2.48zm9.45-5.15c-3 0-5 1.93-5 5.15h.02c0 3.29 1.92 5.17 4.98 5.17 3.06 0 5-1.95 5-5.17 0-3.22-2-5.15-5-5.15zm1.82 5.15c0-1.77-.7-2.81-1.79-2.81s-1.78 1-1.78 2.81.68 2.8 1.78 2.8 1.81-.99 1.81-2.79l-.02-.01zm4.48-4.93H78v9.86h-3.2l-.05-9.86zm11.05 10c2.45 0 3.89-1.86 3.89-5.07l.06.01c0-3.22-1.45-5.07-3.97-5.05a3.09 3.09 0 00-3 1.9h-.06v-1.76h-3.19v13h3.21v-4.86h.06a3.07 3.07 0 003 1.83zm.62-5.07c0-1.56-.73-2.57-1.86-2.57-1.13 0-1.84 1-1.85 2.57-.01 1.57.72 2.56 1.85 2.56 1.13 0 1.92-.93 1.92-2.55l-.06-.01zm13.13-1.85c-.02-2.04-1.69-3.31-4.38-3.31l.06.01c-2.71 0-4.39 1.25-4.45 3.21 0 1.51 1.01 2.52 2.94 2.93l1.86.39c.77.16 1.07.25 1.07.78s-.44.83-1.38.83-1.52-.43-1.61-1.16h-3.11c.13 2.01 1.92 3.33 4.67 3.33s4.6-1.36 4.6-3.36c0-1.49-.8-2.29-2.8-2.71l-2.06-.42c-.74-.15-1.11-.31-1.11-.82s.42-.85 1.3-.85c.88 0 1.47.44 1.47 1.15h2.93zm11.02 6.77h-3.11v-1.85h-.06a2.82 2.82 0 01-2.87 2.05 3.428 3.428 0 01-3.53-3.71v-6.33h3.21v5.64c0 1.16.61 1.79 1.61 1.79a1.637 1.637 0 001.61-1.88v-5.55h3.2l-.06 9.84zm4.67-9.85h-3.12l.02 9.86h3.21v-5.82a1.43 1.43 0 011.43-1.61c.88 0 1.37.53 1.37 1.53v5.9h3.06v-5.84a1.402 1.402 0 011.41-1.59c.91 0 1.38.56 1.38 1.56v5.87h3.23v-6.69a3.123 3.123 0 00-3.23-3.35 3 3 0 00-3 2.09h-.14a2.56 2.56 0 00-2.74-2.09 2.86 2.86 0 00-2.81 2.08h-.07v-1.9zm-85.08-2.33A9.88 9.88 0 0013 3.43H.52v26.34h26.35V17.46a9.87 9.87 0 003.29-7.35zm-5.07 0a4.82 4.82 0 11-9.64.02 4.82 4.82 0 019.64-.02zM5.59 24.7H21.8v-4.83a9.67 9.67 0 01-1.53.13 9.9 9.9 0 01-9.89-9.89c.004-.54.055-1.079.15-1.61H5.59v16.2z" fill="#696871"/></svg>
